X: 1
T: String Quartet in E Major opus 17 no 1 mvt 3
C: Franz Joseph Haydn
%%abc-version 2.0
%%abcx-abcm2ps-target-version 5.9.1 (29 Sep 2008)
%%abc-creator hum2abc beta
%%abcx-conversion-date 2021/02/14 14:38:26
%%abc-copyright Copyright (c) 1994, 2000 Center for Computer Assisted Research in the Humanities
%%abc-edited-by Frances Bennion
%%abc-edited-by Frances Bennion
%%abcx-initial-encoding-date 1997/04/15
%%gracespace 0 6 6
%%humdrum-veritas 3109669846
%%humdrum-veritas-data 1923488550
%%linebreak <none>
%%barnumbers 0
L: 1/16
M: 6/8
N: Derived from op17n1-03.krn
Q: "Adagio" 1/8=120
%%staves [1 2 3 4]
V: 1
V: 2
V: 3 clef=alto
V: 4 clef=bass
K: G
[V:1]e6 B4A/G/F/E/ |
[V:2]B,4B,2 B,4B,2 |
[V:3]G,4G,2 G,4G,2 |
[V:4]E,4E,2 E,4E,2 |
[V:1]^D2>E2D2 D2z4 |
[V:2]B,4B,2 B,2z4 |
[V:3]A,4A,2 A,2z4 |
[V:4]F,4F,2 F,2z4 |
[V:1]f4>B,4 A2GF |
[V:2]B,4B,2 B,4B,2 |
[V:3]F,4F,2 F,4F,2 |
[V:4]^D,4D,2 D,4D,2 |
[V:1]G2>A2B2 B2>c2B2 |
[V:2]B,4G2 G2>A2B2 |
[V:3]E,4E2 G4F2 |
[V:4]E,4E,2 E,4D,2 |
[V:1]e8- e^de2 |
[V:2]B6 ^A6 |
[V:3]E2>F2G2 G2>F2E2 |
[V:4]C,4C,2 C,4C,2 |
[V:1]^d2>e2f2 B6 |
[V:2]B12- |
[V:3]F4^D2 D4F2 |
[V:4]B,,4B,,2 B,,4^D,2 |
[V:1]c8- cac2 |
[V:2]B2>c2B2 A6- |
[V:3]G2>A2G2 F6- |
[V:4]E,4E,2 F,4E,2 |
[V:1]B8- BeE2 |
[V:2]A2>B2A2 G4B,2 |
[V:3]F2>G2F2 E4G,2 |
[V:4]^D,4D,2 E,4G,,2 |
[V:1]=F2>G2F2 c2A2F2 |
[V:2]C4C2 C4C2 |
[V:3]A,4A,2 A,4A,2 |
[V:4]A,,4A,,2 A,,4A,,2 |
[V:1]E2>F2^D2 E2z4 |
[V:2]B,4A,2 G,2z4 |
[V:3]G,4F,2 E,2z4 |
[V:4]B,,4B,,2 E,2z4 |
[V:1]zac'aec' dd'afdd' |
[V:2]c4c2 c4c2 |
[V:3]A4A2 A4A2 |
[V:4]G4G2 F4F2 |
[V:1]zgbgdb cc'gecc' |
[V:2]B4B2 B4B2 |
[V:3]G4G2 G4G2 |
[V:4]F4F2 E4E2 |
[V:1]zfafca Bbf^dBb |
[V:2]A4A2 A4A2 |
[V:3]F4F2 F4F2 |
[V:4]E4E2 ^D4D2 |
[V:1]zegeBe GBEGB,E |
[V:2]G4z8 |
[V:3]B,4z8 |
[V:4]E4z8 |
[V:1]z=fafcf Ac=FACF |
[V:2]=F8- F2C2 |
[V:3]C8- C2A,2 |
[V:4]A,,12 |
[V:1]E2>F2^D2 E2z4 |
[V:2]B,4A,2 G,2z4 |
[V:3]G,2>A,2F,2 E,2z4 |
[V:4]B,,4B,,2 E,2z4 |
[V:1]e6 B4A/G/F/E/ |
[V:2]B,4B,2 B,4C2 |
[V:3]G,4G,2 G,4G,2 |
[V:4]E,4E,2 E,4E,2 |
[V:1]D2>E2D2 D2z4 |
[V:2]C4C2 C2z4 |
[V:3]A,4A,2 A,2z4 |
[V:4]F,4F,2 F,2z4 |
[V:1]d4c/B/A/G/ c2>d2c2 |
[V:2](3zDG(3BGD(3zDd (3zDA(3cAD(3zDc |
[V:3]z4G2 z4F2 |
[V:4]G,4z2 F,4z2 |
[V:1]B2>c2B2 A2>B2A2 |
[V:2](3zDG(3BGD(3zDB (3zDF(3AFD(3zDA |
[V:3]z2z2G2 z4C2 |
[V:4]G,4z2 C4z2 |
[V:1]d4(3gdB dcz2(3afc |
[V:2](3zDG(3BGD(3zDB (3zDA(3cAD(3zDc |
[V:3]z4G2 z4F2 |
[V:4]B,4z2 F,4z2 |
[V:1]cBz2(3dBG GFz2(3AFD |
[V:2](3zDG(3BGD(3zDB (3zDF(3AFD(3zDA |
[V:3]z4G2 z4C2 |
[V:4]G,4z2 C4z2 |
[V:1]d2>e2d2 g4=f2 |
[V:2](3zDG(3BGD(3zDB (3zDG(3dGD(3zDd |
[V:3]z4B,2 z4B,2 |
[V:4]B,4z2 B,4z2 |
[V:1]e2>f2e2 a4c2 |
[V:2](3zEG(3BGE(3zEB (3zEA(3eAE(3zEe |
[V:3]z4C2 z4F2 |
[V:4]C4z2 F,4z2 |
[V:1]d2>e2d2 g4B2 |
[V:2](3zDF(3AFD(3zDA (3zDG(3dGD(3zDd |
[V:3]z4B,2 z4E2 |
[V:4]B,4z2 E,4z2 |
[V:1]c2>d2c2 a4c2 |
[V:2](3zCE(3GEC(3zCE (3zCF(3AFC(3zA,F |
[V:3]z4A,2 z4D2 |
[V:4]A,4z2 D,4z2 |
[V:1]B2>c2B2 g4^c2 |
[V:2](3zB,D(3GDB,(3zB,G (3z^CE(3GEC(3zEG |
[V:3]z4G2 z4G2 |
[V:4]G,4z2 E,4A,2 |
[V:1]d4f2 d2z4 |
[V:2](3zA,D(3FDA,(3zA,F A,2z4 |
[V:3]F4F2 F2z4 |
[V:4]D,4D2 D,2z2D,/C,/B,,/A,,/ |
[V:1]g6 d4c/B/A/G/ |
[V:2]B,4B,2 B,4B,2 |
[V:3]D4D2 D4D2 |
[V:4]G,,4G,2 G,4G,2 |
[V:1]F2>G2F2 c4B2 |
[V:2]C4C2 A4B2 |
[V:3]D4D2 D4G2 |
[V:4]A,4A,2 F,4G,2 |
[V:1]e8- edc2 |
[V:2]B2>c2B2 c2>B2A2 |
[V:3]^G2>A2G2 A4E2 |
[V:4]C,4C,2 C,4C,2 |
[V:1]B2>c2A2 G2z4 |
[V:2]G2>A2F2 G2z4 |
[V:3]D4C2 B,2z4 |
[V:4]D,4D,2 G,2z4 |
[V:1]g6 d4c/B/A/G/ |
[V:2]B,4B,2 B,4B2 |
[V:3]D4D2 D4D2 |
[V:4]G,4G,2 G,4G,2 |
[V:1]^c2>d2c2 c2d2=c2 |
[V:2]_B4B2 B2A2A2 |
[V:3]E4E2 D4D2 |
[V:4]G,4G,2 F,4F,2 |
[V:1]B4g2 e2c2A2 |
[V:2](3zDG(3BGD(3zDB (3zEA(3cAE(3zEc |
[V:3]z4G2 z4C2 |
[V:4]G,4z2 C,4z2 |
[V:1]d4c2 B2z4 |
[V:2](3zDG(3BGD(3zA,F (3zG,B,(3DB,G,(3zB,G |
[V:3]z4D2 z4G2 |
[V:4]D,4z2 G,,4z2 |
[V:1]d4g2 e2c2A2 |
[V:2](3zDG(3BGD(3zDB (3zEA(3cAE(3zEc |
[V:3]z4B,2 z4C2 |
[V:4]B,,4z2 C,4z2 |
[V:1]d4F2 G2z2cF |
[V:2](3zDG(3BGD(3zA,C (3zB,D(3GDB,(3zA,C |
[V:3]z4D2 G2z2A,2 |
[V:4]D,4z2 G,2z2D,2 |
[V:1]G2z2cF G2(3zgd(3cAF |
[V:2](3zB,D(3GDB,(3zA,C (3zB,D(3GDB,(3zA,C |
[V:3]B,2z2A,2 B,2z2A,2 |
[V:4]G,2z2D,2 G,2z2D,2 |
[V:1]G2G2G2 G2z4 |
[V:2](3zB,D(3GDB,(3GDB, G2z4 |
[V:3]B,2B,2B,2 B,2z4 |
[V:4]G,2G,,2G,,2 G,,2z4 |
[V:1]b6 f4e/^d/^c/B/ |
[V:2]F4F2 B4B2 |
[V:3]B,4B,2 B,4B,2 |
[V:4]^D,4D,2 D,4D,2 |
[V:1]g2>a2g2 f2z4 |
[V:2]^A4A2 B2z4 |
[V:3]^C4C2 ^D2z4 |
[V:4]E,4E,2 ^D,2z4 |
[V:1]G2>A2G2 F2z4 |
[V:2]^C4C2 ^D2z4 |
[V:3]^A,4A,2 B,2z4 |
[V:4]E,4E,2 ^D,2z4 |
[V:1]c2>d2c2 B2z4 |
[V:2]^D4D2 E2z4 |
[V:3]F4F2 G2z4 |
[V:4]A,4A,2 G,2z4 |
[V:1]d2>e2d2 ^c2z4 |
[V:2]^E4E2 F2z4 |
[V:3]^G4G2 ^A2z4 |
[V:4]B,4B,2 ^A,2z4 |
[V:1]f6 ^e6 |
[V:2](3z^A^c(3fcA(3zAc (3z^GB(3dBG(3zGB |
[V:3]z4F,2 z4F,2 |
[V:4]F,,4z2 F,,4z2 |
[V:1]e6 ^d6 |
[V:2](3z^A^c(3ecA(3zAc (3zFB(3^dBF(3zBd |
[V:3]z4F,2 z4F,2 |
[V:4]F,,4z2 F,,4z2 |
[V:1]d6 ^c6 |
[V:2](3z^E^G(3BGE(3zEB (3z=E^A(3^cAE(3zEA |
[V:3]z4F,2 z4F,2 |
[V:4]F,,4z2 F,,4z2 |
[V:1]B4d2 ^c2>e2^A2 |
[V:2](3zDF(3BFD(3zFB (3z^CE(3GEC(3zC^A |
[V:3]B,4B,2 E4F2 |
[V:4]B,,4B,2 E,4F,2 |
[V:1]B4d2 ^c2>e2^A2 |
[V:2](3zDF(3BFD(3zFB (3z^CE(3GEC(3zC^A |
[V:3]B4D2 E4F2 |
[V:4]B,4D,2 E,4F,2 |
[V:1]B12 |
[V:2](3zDF(3BFD(3zDB (3zDF(3BFD(3zDB |
[V:3]z4B,2 z4B,2 |
[V:4]B,,4z2 B,,4z2 |
[V:1]c8- cBA2 |
[V:2](3zDF(3cFD(3zFA (3z^DF(3AFD(3zB,F |
[V:3]z4A,2 z4^D2 |
[V:4]A,,4z2 A,4^D,2 |
[V:1]e6 B4A/G/F/E/ |
[V:2]E4B,2 B,4B,2 |
[V:3]E4G,2 G,4G,2 |
[V:4]E,4E,2 E,4E,2 |
[V:1]^D2>E2D2 D2z4 |
[V:2]B,4B,2 B,2z4 |
[V:3]A,4A,2 A,2z4 |
[V:4]F,4F,2 F,2z4 |
[V:1]f6 B,4AG/F/ |
[V:2]B,4B,2 B,4B,2 |
[V:3]F,4F,2 F,4F,2 |
[V:4]^D,4D,2 D,4D,2 |
[V:1]G2>A2B2 B6 |
[V:2]B,4G2 G4[B2G2] |
[V:3]E,4E2 E4E2 |
[V:4]E,4E,2 E,4G,,2 |
[V:1]c4>>f4 afcf |
[V:2][G4c4]A2 F6- |
[V:3]ECECA,C F,Fz4 |
[V:4]A,,A,CA,E,A, D,Dz4 |
[V:1]Bbz2<z2 zegeBe |
[V:2][F4B4]G2 E6- |
[V:3]zB,DB,G,B, E,Ez4 |
[V:4]zG,B,G,D,G, C,Cz4 |
[V:1]Aaz2<z2 z^dfdaA |
[V:2][E4A4]F2 ^D6 |
[V:3]zA,CA,EE, ^D,^Dz4 |
[V:4]zF,A,F,CC, B,,B,z4 |
[V:1]Ggz2<z2 zGFE^DE |
[V:2]GEGECB, ^A,2z4 |
[V:3]zEGECB, ^A,2z4 |
[V:4]zE,G,E,C,B,, ^A,,2z4 |
[V:1]z^A,B,^DF^A B2z4 |
[V:2]B,2z8 z2 |
[V:3]B,2z8 z2 |
[V:4]B,,2z8 z2 |
[V:1]e6 B4A/G/F/E/ |
[V:2]B,4B,2 B,4B,2 |
[V:3]G,4G,2 G,4G,2 |
[V:4]E,,4E,2 E,4E,2 |
[V:1]A2>B2A2 A4G2 |
[V:2]B,4B,2 F4E2 |
[V:3]^D4D2 B,6 |
[V:4]F,4F,2 ^D,4E,2 |
[V:1]c8- cBA2 |
[V:2]^D2>E2D2 D2>E2F2 |
[V:3]F,2>G,2F,2 F,2>G,2A,2 |
[V:4]A,,4A,,2 A,,4A,,2 |
[V:1]G2>A2F2 E2z4 |
[V:2]E2>F2^D2 E2z4 |
[V:3]B,4A,2 G,2z4 |
[V:4]B,,4B,,2 E,2z4 |
[V:1]e6 B4A/G/F/E/ |
[V:2]B,4B,2 B,4B,2 |
[V:3]G,4G,2 G,4G,2 |
[V:4]E,4E,2 E,4E,2 |
[V:1]^A2>B2A2 A6 |
[V:2]^C4C2 C4C2 |
[V:3]G,4G,2 G,4G,2 |
[V:4]E,4E,2 E,4E,2 |
[V:1]^A2>^c2A2 A6- |
[V:2]^C4C2 C4C2- |
[V:3]G,4G,2 G,4G,2- |
[V:4]^D,4D,2 D,4D,2 |
[V:1]A2B2B2 A6 |
[V:2]C2B,2B,2 C4B,2 |
[V:3]G,2F,2F,2 F,4F,2 |
[V:4]^D,4D,2 D,4D,2 |
[V:1]G4e2 c2A2F2 |
[V:2](3zB,E(3GEB,(3zB,G (3zCF(3AFC(3zCA |
[V:3]z4E2 z4A,2 |
[V:4]E,4z2 A,,4z2 |
[V:1]B4A2 G2z4 |
[V:2](3zB,E(3GEB,(3z^DF (3zG,B,(3EB,G,(3zG,E |
[V:3]z4B,2 z4E2 |
[V:4]B,,4z2 E,4z2 |
[V:1]B4e2 c2A2F2 |
[V:2](3zB,E(3GEB,(3zB,G (3zCF(3AFC(3zCA |
[V:3]z4B,2 z4A,2 |
[V:4]G,,4z2 A,,4z2 |
[V:1]B4^D2 E2z2AD |
[V:2](3zB,E(3GEB,(3z^DF (3zG,B,(3EB,G,(3zA,D |
[V:3]z4B,2 E2z2B,2 |
[V:4]B,,4z2 E,2z2B,,2 |
[V:1]E2z2A^D E2(3zeB(3AFD |
[V:2](3zG,B,(3EB,G,(3zA,^D (3zG,B,(3EB,G,(3zA,D |
[V:3]E2z2B,2 E2z2B,2 |
[V:4]E,2z2B,,2 E,2z2B,,2 |
[V:1]E2E2E2 E2z4 |]
[V:2](3zG,B,(3EB,G,(3EB,G, E2z4 |]
[V:3]E2E,2E,2 E,2z4 |]
[V:4]E,2E,2E,2 E,2z4 |]

